dist/svg/lift-fill.svg

<svg xmlns="http://www.w3.org/2000/svg" viewBox="0 0 24 24"><path d="M5.617 3.283q-.873.101-1.552.781a2.74 2.74 0 0 0-.696 1.116l-.109.32v13l.109.32c.151.445.362.783.695 1.116.336.336.676.547 1.116.691.296.098.385.107 1.19.124l.87.018.001-4.435c0-4.753 0-4.744.202-5.139.122-.24.533-.634.797-.765.121-.059.346-.126.5-.148.374-.054 6.146-.054 6.52 0 .154.022.379.089.5.148.264.131.675.525.797.765.202.395.202.386.202 5.139l.001 4.435.87-.018c.805-.017.894-.026 1.19-.124.44-.144.78-.355 1.116-.691.333-.333.544-.671.695-1.116l.109-.32v-13l-.109-.32a2.74 2.74 0 0 0-.696-1.116c-.472-.471-.961-.709-1.606-.783-.425-.049-12.293-.046-12.712.002m8.56 2.995a.739.739 0 0 1 .348 1.246.84.84 0 0 1-.306.191c-.22.062-4.218.062-4.438 0-.212-.058-.441-.293-.5-.511-.109-.405.133-.832.524-.924.189-.045 4.18-.046 4.372-.002m-5.351 5.555c-.06.067-.066.384-.066 3.74v3.667h2.48v-7.48h-1.174c-1.086 0-1.179.005-1.24.073M12.76 15.5v3.74h2.48v-3.674c0-3.508-.003-3.677-.073-3.74-.065-.058-.211-.066-1.24-.066H12.76z" fill-rule="evenodd"/></svg>

<svg fill="none" xmlns="http://www.w3.org/2000/svg" viewBox="0 0 24 24"><path d="M5.617 3.283 C 5.034 3.351,4.519 3.610,4.065 4.064 C 3.732 4.396,3.521 4.735,3.369 5.180 L 3.260 5.500 3.260 12.000 L 3.260 18.500 3.369 18.820 C 3.520 19.265,3.731 19.603,4.064 19.936 C 4.400 20.272,4.740 20.483,5.180 20.627 C 5.476 20.725,5.565 20.734,6.370 20.751 L 7.240 20.769 7.241 16.334 C 7.241 11.581,7.241 11.590,7.443 11.195 C 7.565 10.955,7.976 10.561,8.240 10.430 C 8.361 10.371,8.586 10.304,8.740 10.282 C 9.114 10.228,14.886 10.228,15.260 10.282 C 15.414 10.304,15.639 10.371,15.760 10.430 C 16.024 10.561,16.435 10.955,16.557 11.195 C 16.759 11.590,16.759 11.581,16.759 16.334 L 16.760 20.769 17.630 20.751 C 18.435 20.734,18.524 20.725,18.820 20.627 C 19.260 20.483,19.600 20.272,19.936 19.936 C 20.269 19.603,20.480 19.265,20.631 18.820 L 20.740 18.500 20.740 12.000 L 20.740 5.500 20.631 5.180 C 20.479 4.735,20.268 4.396,19.935 4.064 C 19.463 3.593,18.974 3.355,18.329 3.281 C 17.904 3.232,6.036 3.235,5.617 3.283 M14.177 6.278 C 14.742 6.409,14.938 7.111,14.525 7.524 C 14.444 7.605,14.307 7.691,14.219 7.715 C 13.999 7.777,10.001 7.777,9.781 7.715 C 9.569 7.657,9.340 7.422,9.281 7.204 C 9.172 6.799,9.414 6.372,9.805 6.280 C 9.994 6.235,13.985 6.234,14.177 6.278 M8.826 11.833 C 8.766 11.900,8.760 12.217,8.760 15.573 L 8.760 19.240 10.000 19.240 L 11.240 19.240 11.240 15.500 L 11.240 11.760 10.066 11.760 C 8.980 11.760,8.887 11.765,8.826 11.833 M12.760 15.500 L 12.760 19.240 14.000 19.240 L 15.240 19.240 15.240 15.566 C 15.240 12.058,15.237 11.889,15.167 11.826 C 15.102 11.768,14.956 11.760,13.927 11.760 L 12.760 11.760 12.760 15.500 " stroke="none" fill-rule="evenodd" fill="currentColor"/></svg>
